!!!OTL: 154. Freylekhs
!!!Genre:	Freylekhs
!!!Mode:	Major
!!!Listening/dance:	dance
!!!:	*g:dor; *G:frey
!!!One_Mode:	no
**kern
*I"P1
*clefG2
*k[f#]
*G:
*M2/4
*>A
!LO:TX:a:i:t=G-major
16dLL
16g
16aJJ
=1!|:
(32bLLL
32cc
32b
32ccJ
16b
16gJJ)
(32aLLL
32b
32a
32bJJ
8gJ)
=2
16bLL
16cc
16dd
16bJJ
(32aLLL
32b
32a
32bJJ
8gJ)
=3
16bLL
16cc
16dd
16eeJJ
16ffnLL
16ee
16dd
16cc#XJJ
=4
(8qee/
8dd)
8r
4gg^
=5
32bLLL
32cc
32b
32ccJ
16b
16gJJ
32aLLL
32b
32a
32bJJ
8gJ
=6
16bLL
16cc
16dd
16bJJ
32aLLL
32b
32a
32bJJ
8gJ
=7
16bLL
16cc
16dd
16eeJJ
(16qqdd/LL
16qqee/JJ
16ddLL)
16b
(16qqb/LL
16qqdd/JJ
16cc)
16aJJ
*>A1
=8
4.g
16gLL
16aJJ
*>A2
=9:|!
2g
*>bM
*g:dor
=10!|:
*>B
*k[b-]
!LO:TX:a:i:t=G-raised-fourth
(8qff#X/
2gg)
=11
(8qff#Xt/
2gg)
=12
(8qff#X/
4gg)
(8qff#/
4gg)
=13
(8qff#Xt/
4gg)
(8qff#/
4gg)
=14
(16bb-LL
16aaJ
8ggJ)
8r
[8gg
=15
(16ggLL]
16ff)
(16ff
16eeJJ)
16ffLL
16eeJ
8ddJ
=16
16bb-LL
16aaJ
8ggJ
8r
[8gg
=17
(16ggLL]
16ff)
(16ff
16eeJJ)
(16ffLL
16eeJ
8ddJ)
=18
(16bb-LL
16aaJ
8ggJ
(16ggLL
16ffJ
8eeJ)
=19
(16ffLL
16eeJ
8ddJ)
8dd
8r
=20
(16qqdd/LL
16qqee/
16qqdd/JJ
16cc#XLL)
16dd
16ee
16ffJJ
(16qqee/LL
16qqff/JJ
*^
16eeLL)	4ryy
16dd	.
16cc#	.
16b-JJ	.
*v	*v
=21
16aLL
16b-JJ
4cc#X
16cc#LL
16eeJJ
=22
(16qqee/LL
16qqff/JJ
(16eeLL)
16dd)
(16qqdd/LL
16qqee/JJ
(16dd)
16cc#XJJ)
(16qqcc#/LL
16qqdd/JJ
(16cc#LL)
16b-)
(16qqb-/LL
16qqcc#/JJ
(16b-)
16aJJ)
=23
(16aLL
16b-JJ
4cc#X)
(16cc#LL
16eeJJ)
=24
(16qqee/LL
16qqff/JJ
(16eeLL)
16dd)
(16qqdd/LL
16qqee/JJ
(16dd)
16cc#XJJ)
(16qqcc#/LL
16qqdd/JJ
(16cc#LL)
16b-)
(16qqb-/LL
16qqcc#/JJ
(16b-)
16aJJ)
=25
16aLL
(8qcc#X/
16b-JJ)
4.g
*>eM
*>bM
*G:frey
=26:|!|:
*>C
*k[b-e-a-]
!LO:TX:a:i:t=G-freygish
[2dd
=27
8ddL]
24ccL
24dd
24ccJ
8bn
8ccJ
=28
(8.bnL
16a-k
8g
8a-J)
=29
8bnL
8cc
8dd
8ffJ
=30
(16aa-LL
16ggJ
8ffJ)
4ff
=31
(16qqff/LL
16qqgg/JJ
(16ffLL)
16ee-J)
8ddJ
16ddLL
16cc
16bn
16ccJJ
=32
*^
2dd	[4dd
.	16ddLL]
.	16g
.	16bn
.	16ddJJ
*v	*v
=33
2ggt
=34
(8qcc/
4.a-)
8dd
=35
(16qqcc/LL
16qqdd/JJ
(8ccL)
8bn
8a-
8gJ)
=36
(8qbn/
16a-LL)
16gJJ
4.f
=37
8r
16gLL
16a-JJ
16bnLL
16cc
16dd
16ee-JJ
=38
4ff
(16ee-LL
16ddJ
8ccJ)
=39
(16bnLL
16ccJ
8ddJ)
(8qdd/
(16ccLL)
16bJ
8a-J)
=40
(8qa-/
2g)
=41
2gg
=:|!
*>eM
*-
